assets/img/braze_icons/eraser.svg

<svg fill="none" height="24" viewBox="0 0 24 24" width="24" xmlns="http://www.w3.org/2000/svg"><g fill="#801ed7"><path d="m14.764 1.43845c.8033-.26103 1.6687-.26103 2.4721 0 .518.16832.9531.46399 1.383.82898.414.35139.8837.82113 1.4528 1.39027l.2704.27043c.5692.56911 1.039 1.03889 1.3903 1.4528.365.42993.6607.86499.829 1.38304.2611.80337.2611 1.66876 0 2.47213-.1683.51805-.464.9531-.829 1.383-.3514.414-.8212.8838-1.3904 1.4529-.2053.2054-.308.3081-.4138.3715-.3165.1898-.7118.1898-1.0283 0-.1058-.0634-.2085-.1661-.4139-.3715l-6.5582-6.55823c-.2054-.20534-.308-.308-.3714-.41373-.1898-.31654-.1898-.71189 0-1.02844.0634-.10572.166-.20839.3714-.41373.5692-.56922 1.039-1.03902 1.4529-1.39044.43-.36499.865-.66066 1.3831-.82898z"/><path d="m10.7172 7.1314c-.396-.39601-.594-.59402-.82236-.66821-.20085-.06526-.41719-.06526-.61804 0-.22832.07419-.42633.2722-.82235.66822l-4.79661 4.79659c-.56921.5692-1.03899 1.039-1.39041 1.4529-.36499.43-.66066.865-.82898 1.3831-.26103.8033-.26103 1.6687 0 2.4721.16832.518.46399.9531.82898 1.383.35139.414.82114.8837 1.3903 1.4528l.75682.7569c.28744.288.54088.5419.84642.7292.26841.1644.56105.2857.86716.3591.34844.0837.70719.0834 1.11409.083h1.51563c.05823 0 .11547.0001.17184-.0001h12.07031c.5523 0 1-.4477 1-1s-.4477-1-1-1h-8.5857l4.4544-4.4544c.396-.396.594-.594.6682-.8223.0652-.2009.0652-.4172 0-.6181-.0742-.2283-.2722-.4263-.6682-.8223z"/></g></svg>

<svg width="24" height="24" viewBox="0 0 24 24" fill="none" xmlns="http://www.w3.org/2000/svg">
<path d="M14.764 1.43845C15.5673 1.17742 16.4327 1.17742 17.2361 1.43845C17.7541 1.60677 18.1892 1.90244 18.6191 2.26743C19.0331 2.61882 19.5028 3.08856 20.0719 3.6577L20.3423 3.92813C20.9115 4.49724 21.3813 4.96702 21.7326 5.38093C22.0976 5.81086 22.3933 6.24592 22.5616 6.76397C22.8227 7.56734 22.8227 8.43273 22.5616 9.2361C22.3933 9.75415 22.0976 10.1892 21.7326 10.6191C21.3812 11.0331 20.9114 11.5029 20.3422 12.072C20.1369 12.2774 20.0342 12.3801 19.9284 12.4435C19.6119 12.6333 19.2166 12.6333 18.9001 12.4435C18.7943 12.3801 18.6916 12.2774 18.4862 12.072L11.928 5.51377C11.7226 5.30843 11.62 5.20577 11.5566 5.10004C11.3668 4.7835 11.3668 4.38815 11.5566 4.0716C11.62 3.96588 11.7226 3.86321 11.928 3.65787C12.4972 3.08865 12.967 2.61885 13.3809 2.26743C13.8109 1.90244 14.2459 1.60677 14.764 1.43845Z" fill="#801ED7"/>
<path d="M10.7172 7.1314C10.3212 6.73539 10.1232 6.53738 9.89484 6.46319C9.69399 6.39793 9.47765 6.39793 9.2768 6.46319C9.04848 6.53738 8.85047 6.73539 8.45445 7.13141L3.65784 11.928C3.08863 12.4972 2.61885 12.967 2.26743 13.3809C1.90244 13.8109 1.60677 14.2459 1.43845 14.764C1.17742 15.5673 1.17742 16.4327 1.43845 17.2361C1.60677 17.7541 1.90244 18.1892 2.26743 18.6191C2.61882 19.0331 3.08857 19.5028 3.65773 20.0719L4.41455 20.8288C4.70199 21.1168 4.95543 21.3707 5.26097 21.558C5.52938 21.7224 5.82202 21.8437 6.12813 21.9171C6.47657 22.0008 6.83532 22.0005 7.24222 22.0001H8.75785C8.81608 22.0001 8.87332 22.0002 8.92969 22L21 22C21.5523 22 22 21.5523 22 21C22 20.4477 21.5523 20 21 20L12.4143 20L16.8687 15.5456C17.2647 15.1496 17.4627 14.9516 17.5369 14.7233C17.6021 14.5224 17.6021 14.3061 17.5369 14.1052C17.4627 13.8769 17.2647 13.6789 16.8687 13.2829L10.7172 7.1314Z" fill="#801ED7"/>
</svg>
